!!!!SEGMENT: pl-sa--178-a-v-8--005_anonim--msza-agnus-dei.krn
!!!cenid: 17xx:1648
!!!COM: Anonim
!!!COM-rismID:
!!!CDT:
!!!CNT:
!!!OPR: Msza
!!!OTL: Agnus Dei
!!!OMV: 005
!!!PDT:
!!!AGN: Sacred; Mass
!!!SMS-siglum: PL-SA
!!!SMS-shelfmark: 178/A V 8
!!!SMS-shelfwork: 001-005 M
!!!SMS-variant:
!!!SMS-altvar:
!!!NIFC-rismSourceID: 1001035884
!!!NIFC-islandoraID:
!!!URL-pdf-islandora:
!!!URL-scan: https://bc.bdsandomierz.pl/dlibra/publication/1513/edition/1481/content @EN{Scan on Cyfrowa Biblioteka Diecezjalna w Sandomierzu} @PL{Skany w portalu Cyfrowa Biblioteka Diecezjalna w Sandomierzu}
!!!ONB-nifc: UWAGA: części Mszy: 1. Kyrie, 2. Gloria, 3. Patrem, 4. Sanctus, 5. Agnus Dei
!!!ENC: Berenika Jozajtis
!!!END: 2020-12-14
!!!AIN: 1 bass 1 organ 1 soprn 2 violn
!!!key: G
**kern	**fba	**kern	**kern	**kern	**text	**kern	**text
*	*	*group2	*group2	*group1	*	*group1	*
*part5	*part5	*part4	*part3	*part2	*part2	*part1	*part1
*staff5	*	*staff4	*staff3	*staff2	*staff2	*staff1	*staff1
*IGcont	*	*IGacmp	*IGacmp	*IGcoro	*	*IGcoro	*
*ICklav	*	*ICstr	*ICstr	*ICvox	*	*ICvox	*
*Iorgan	*	*Ivioln	*Ivioln	*Ibass	*	*Isoprn	*
*I"Organo.	*	*I"Violino 2do.	*I"Violino Primo.	*I"Baſso	*	*I"Canto.	*
*I'org	*	*I'vl 2	*I'vl 1	*I'B	*	*I'S	*
*clefF4	*	*clefG2	*clefG2	*clefF4	*	*clefC1	*
*k[f#]	*	*k[f#]	*k[f#]	*k[f#]	*	*k[f#]	*
*G:	*	*G:	*G:	*G:	*	*G:	*
*M3/4	*	*M3/4	*M3/4	*M3/4	*	*M3/4	*
*2\right	*	*2\right	*2\right	*2\right	*	*2\right	*
=1	=1	=1	=1	=1	=1	=1	=1
!LO:TX:b:t=Agnus.	!	!	!	!	!	!	!
!LO:TX:a:t=Andante	!	!	!	!	!	!	!
!	!	!LO:TX:b:t=Agnus Dei	!LO:TX:a:t=Lente	!LO:TX:a:t=Lente	!	!LO:TX:a:t=andante	!
2.G\	.	4dd\	4dd\	0.r	.	0.r	.
.	.	8dd\L	8dd\L	.	.	.	.
.	.	8cc#X\J	8cc#X\	.	.	.	.
.	.	8ee\L	8ee\	.	.	.	.
.	.	8dd\J	8dd\J	.	.	.	.
=2	=2	=2	=2	=2	=2	=2	=2
2.G\	.	2b\	2dd\	.	.	.	.
.	.	8b/L	(8b\L	.	.	.	.
.	.	8g/J	8g\J)	.	.	.	.
=3	=3	=3	=3	=3	=3	=3	=3
2.D\	.	4f#/	4a/	.	.	.	.
.	.	8f#/L	(8a/L	.	.	.	.
.	.	8d/	8g/	.	.	.	.
.	.	8f#/	8a/)	.	.	.	.
.	.	8g/J	8b/J	.	.	.	.
=4	=4	=4	=4	=4	=4	=4	=4
2.G\	.	2.g/	2.g/	.	.	.	.
=5	=5	=5	=5	=5	=5	=5	=5
2.G\	.	4dd\	4dd\	0.r	.	0.r	.
.	.	(8dd\L	(8dd\L	.	.	.	.
.	.	8cc#X\J)	8cc#X\J)	.	.	.	.
.	.	8ee\L	(8ee\L	.	.	.	.
.	.	8dd\J	8dd\J)	.	.	.	.
=6	=6	=6	=6	=6	=6	=6	=6
2.G\	.	2b\	2dd\	.	.	.	.
.	.	8b\L	8b\L	.	.	.	.
.	.	8g\J	8g\J	.	.	.	.
=7	=7	=7	=7	=7	=7	=7	=7
2.D\	.	4f#/	4a/	.	.	.	.
.	.	8f#/L	8a/L	.	.	.	.
.	.	8d/	8g/	.	.	.	.
.	.	8f#/	8a/	.	.	.	.
.	.	8g/J	8b/J	.	.	.	.
=8	=8	=8	=8	=8	=8	=8	=8
!LO:LB:g=original	!	!LO:LB:g=original	!	!	!	!	!
2.G\	.	2.g/	2.g/	.	.	.	.
=9	=9	=9	=9	=9	=9	=9	=9
4D\	7	2a/	2cc\	0.r	.	0.r	.
4D\	.	.	.	.	.	.	.
4G\	.	4g/	4b\	.	.	.	.
=10	=10	=10	=10	=10	=10	=10	=10
!	!	!	!LO:LB:g=original	!	!	!	!
4D\	.	4f#/	4a/	.	.	.	.
4D\	.	8f#/L	8a/L	.	.	.	.
.	.	8d/	8g/	.	.	.	.
4D\	.	8f#/	8a/	.	.	.	.
.	.	8g/J	8b/J	.	.	.	.
=11	=11	=11	=11	=11	=11	=11	=11
4D\	.	2a/	2cc\	.	.	.	.
4D\	.	.	.	.	.	.	.
4G\	.	4g/	8b\L	.	.	.	.
.	.	.	8g\J	.	.	.	.
=12	=12	=12	=12	=12	=12	=12	=12
4D\	.	8d/L	8a/L	.	.	.	.
.	.	8B/J	8f#/J	.	.	.	.
4G\	.	4G/	4g/	.	.	.	.
4r	.	4r	4r	.	.	.	.
=13	=13	=13	=13	=13	=13	=13	=13
4D\	.	2a/	2cc\	0.r	.	0.r	.
4D\	.	.	.	.	.	.	.
4G\	.	4g/	4b\	.	.	.	.
=14	=14	=14	=14	=14	=14	=14	=14
4D\	.	4f#/	4a/	.	.	.	.
4D\	.	8f#/L	8a/L	.	.	.	.
.	.	8d/	8g/	.	.	.	.
4D\	.	8f#/	8a/	.	.	.	.
.	.	8g/J	8b/J	.	.	.	.
=15	=15	=15	=15	=15	=15	=15	=15
4D\	.	2a/	2cc\	.	.	.	.
4D\	.	.	.	.	.	.	.
4G\	.	4g/	8b\L	.	.	.	.
.	.	.	8g\J	.	.	.	.
=16	=16	=16	=16	=16	=16	=16	=16
4D\	.	8d/L	8a/L	.	.	.	.
!	!	!LO:SIC:v:s=8A/J:t=?	!	!	!	!	!
.	.	8B/J	8f#/J	.	.	.	.
4G\	.	4G/	4g/	.	.	.	.
4r	.	4r	4r	.	.	.	.
=17	=17	=17	=17	=17	=17	=17	=17
!LO:LB:g=original	!	!LO:LB:g=original	!	!	!	!	!
2G\	.	8.b/L	(8.dd\L	2B\	A-	2dd\	A-
.	.	16g/Jk	16b\K	.	.	.	.
.	.	8g/L	8g\	.	.	.	.
.	.	8g/J	8b\)	.	.	.	.
!	!	!LO:TX:t=P:problem=mixed beam	!	!	!	!	!
4G\	.	8b/L	8dd\	4B\	-gn(us)	4dd\	-gn(us)
.	.	8dd\J	8gg\J	.	.	.	.
=18	=18	=18	=18	=18	=18	=18	=18
4C/	.	4cc\	4ee\	4c\	De-	4ee\	De-
4G\	.	8b\L	8dd\L	4B\	-i	4dd\	-i
.	.	8a\	8ff#\	.	.	.	.
4r	.	8b\	8gg\	4r	.	4r	.
.	.	8cc\J	8ee\J	.	.	.	.
=19	=19	=19	=19	=19	=19	=19	=19
!	!	!	!LO:LB:g=original	!	!	!	!
2D\	.	8a/L	8.cc\L	4A\	qvi	4cc\	qvi
.	.	8f#/	.	.	.	.	.
.	.	.	16a\Jk	.	.	.	.
.	.	8d/	8f#/L	4A\	tol-	4cc\	tol-
.	.	8f#/	8a/	.	.	.	.
4r	.	8g/	8b/	8G\	-lis	8b\	-lis
.	.	8f#/J	8a/J	8F#\	pec-	8b\	pec-
=20	=20	=20	=20	=20	=20	=20	=20
4G\	.	8g/L	8b\L	8G\	-ca-	8b\	-ca-
.	.	8b/J	8gg\J	8G\	-ta	8b\	-ta
4D\	.	4a/	4ff#\	4D\	m(un)-	4a\	m(un)-
4G\	.	4b/	4gg\	4G\	-di	4g\	-di
=21	=21	=21	=21	=21	=21	=21	=21
2.G\	.	16gg\LL	16gg\LL	2.B\	mi-	2.dd\	mi-
.	.	16ff#\	16ff#\	.	.	.	.
.	.	16gg\	16gg\	.	.	.	.
.	.	16aa\JJ	16aa\JJ	.	.	.	.
.	.	8bb\L	8bb\L	.	.	.	.
.	.	16bb\L	16bb\L	.	.	.	.
.	.	16aa\JJ	16aa\JJ	.	.	.	.
.	.	8bb\L	8bb\L	.	.	.	.
.	.	8gg\J	8gg\J	.	.	.	.
=22	=22	=22	=22	=22	=22	=22	=22
2.D\	.	8.dd\L	8.dd\L	2.A\	-se-	2.dd\	-se-
.	.	16ee\Jk	16ee\Jk	.	.	.	.
.	.	8ff#\L	8ff#\L	.	.	.	.
.	.	8gg\	8gg\	.	.	.	.
.	.	8aa\	8aa\	.	.	.	.
.	.	8ff#\J	8ff#\J	.	.	.	.
=23	=23	=23	=23	=23	=23	=23	=23
!	!	!LO:LB:g=original	!	!LO:LB:g=original	!	!LO:LB:g=original	!
2.G\	.	16gg\LL	16gg\LL	2.B\	-re-	2.dd\	-re-
.	.	16ff#\	16ff#\	.	.	.	.
.	.	16gg\	16gg\	.	.	.	.
.	.	16aa\JJ	16aa\JJ	.	.	.	.
.	.	8bb\L	8bb\L	.	.	.	.
.	.	16bb\L	16bb\L	.	.	.	.
.	.	16aa\JJ	16aa\JJ	.	.	.	.
.	.	8bb\L	8bb\L	.	.	.	.
.	.	8gg\J	8gg\J	.	.	.	.
=24	=24	=24	=24	=24	=24	=24	=24
2.D\	.	8.dd\L	(8.dd\L	2.A\	-re	2.dd\	-re
.	.	16ee\Jk	16ee\K	.	.	.	.
.	.	8ff#\L	8ff#\)	.	.	.	.
.	.	8gg\	8gg\	.	.	.	.
.	.	8aa\	8aa\	.	.	.	.
.	.	8ff#\J	8ff#\J	.	.	.	.
=25	=25	=25	=25	=25	=25	=25	=25
2.D\	.	4cc\	(4aa\	(4A\	no-	4cc\	no-
.	.	4b\	4gg\	4G\)	.	4b\	.
.	.	4a\	4ff#\)	4F#\	.	4a\	.
=26	=26	=26	=26	=26	=26	=26	=26
!	!	!	!LO:LB:g=original	!	!	!	!
2G\	.	2b\	2gg\	2G\	-bis	2b\	-bis
4r	.	4r	4r	4r	.	4r	.
=27	=27	=27	=27	=27	=27	=27	=27
2G\	.	4dd\	4dd\	2G\	A-	4dd\	A-
.	.	8dd\L	(8dd\L	.	.	8dd\L	.
.	.	8cc#X\J	8cc#X\J)	.	.	8cc#\J	.
4G\	.	8ee\L	(8ee\L	4G\	-gn(us)	8ee\L	-gn(us)
.	.	8dd\J	8dd\J)	.	.	8dd\J	.
=28	=28	=28	=28	=28	=28	=28	=28
!LO:LB:g=original	!	!	!	!	!	!	!
2.G\	.	2dd\	2dd\	2B\	De-	2dd\	De-
.	.	8b\L	(>8b\L	4G\	-i	8b\L	-i
.	.	8g\J	8g\J)	.	.	8g\J	.
=29	=29	=29	=29	=29	=29	=29	=29
!	!	!	!LO:N:vis=8	!	!	!	!
2.D\	.	4f#/	4a/L	2D\	qui	4a\	qui
.	.	8f#/L	8a/	.	.	8a\L	tol-
!	!	!LO:SIC:v:s=8e/	!	!	!	!	!
.	.	8d/	8g/	.	.	8g\J	.
.	.	8f#/	8a/J	4D\	tol-	8a\L	.
!	!	!	!LO:N:vis=4	!	!	!	!
.	.	8g/J	8b/	.	.	8b\J	.
=30	=30	=30	=30	=30	=30	=30	=30
!	!	!LO:LB:g=original	!	!	!	!	!
2.G\	.	8g\L	8g/L	2G\	-lis	2g\	-lis
.	.	8b\	8b/J	.	.	.	.
.	.	8dd\	8dd\L	.	.	.	.
.	.	8cc#X\J	8cc#X\J	.	.	.	.
.	.	8dd\L	8dd\L	4r	.	4r	.
.	.	8b\J	8b\J	.	.	.	.
=31	=31	=31	=31	=31	=31	=31	=31
!	!	!	!	!	!	!LO:LB:g=original	!
2.G\	.	4dd\	4dd\	4B\	pec-	4dd\	pec-
.	.	8dd\L	(8dd\L	4B\	-ca-	8dd\L	-ca-
.	.	8cc#X\J	8cc#X\J)	.	.	8cc#X\J	.
.	.	8ee\L	(8ee\L	4B\	-ta	8ee\L	-ta
.	.	8dd\J	8dd\J)	.	.	8dd\J	.
=32	=32	=32	=32	=32	=32	=32	=32
!	!	!	!	!LO:LB:g=original	!	!	!
2.G\	.	2b\	2dd\	2B\	mun-	2dd\	mun-
.	.	8b\L	8b\L	4G\	-di	8b\L	-di
.	.	8g\J	8g\J	.	.	8g\J	.
=33	=33	=33	=33	=33	=33	=33	=33
2.D\	.	4f#/	4a/	4D\	pec-	4a\	pec-
.	.	8f#/L	(8a/L	4D\	-ca-	8a\L	-ca-
.	.	8d/	8g/	.	.	8g\J	.
.	.	8f#/	8a/	4D\	-ta	8a\L	-te
.	.	8g/J	8b/J)	.	.	8b\J	.
=34	=34	=34	=34	=34	=34	=34	=34
!	!	!	!LO:LB:g=original	!	!	!	!
2.G\	.	8g\L	8g\L	4G\	mun-	4g\	mun-
.	.	8b\	8b\	.	.	.	.
.	.	8dd\	(8dd\	4G\	-di	4g\	-di
.	.	8cc#X\J	8cc#X\	.	.	.	.
.	.	8dd\L	8dd\)	4r	.	4r	.
.	.	8b\J	8b\J	.	.	.	.
=35	=35	=35	=35	=35	=35	=35	=35
!	!	!	!LO:TX:t=P:problem=mixed beam	!	!	!	!
2.G\	.	8b\L	8g/L	8B\	mi-	8g\	mi-
.	.	8b\	8gg\J	8B\	-se-	8g\	-se-
.	.	8cc\	8aa\L	8c\L	-re-	8a\L	-re-
.	.	8a\J	16gg\L	8A\J	.	8f#\J	.
.	.	.	16ff#\JJ	.	.	.	.
.	.	4b\	4gg\	4B\	-re	4g\	-re
=36	=36	=36	=36	=36	=36	=36	=36
2.G\	.	8b\L	8dd\L	8B\	mi-	8g\	mi-
.	.	8b\	8gg\J	8B\	-se-	8g\	-se-
!	!	!	!	!	!	!LO:LB:g=original	!
.	.	8cc\	8aa\L	8c\L	-re-	8a\L	-re-
.	.	8a\J	16gg\L	8A\J	.	8f#\J	.
.	.	.	16ff#\JJ	.	.	.	.
.	.	4b\	4gg\	4B\	-re	4g\	-re
=37	=37	=37	=37	=37	=37	=37	=37
!	!	!LO:LB:g=original	!	!LO:LB:g=original	!	!	!
2.G\	.	8gg\L	8bb\L	8G\	mi-	8b\	mi-
.	.	8gg\	8bb\J	8G\	-se-	8b\	-se-
.	.	8aa\	8ccc\L	8A\L	-re-	8cc\L	-re-
.	.	8ff#\J	16bb\L	8F#\J	.	8a\J	.
.	.	.	16aa\JJ	.	.	.	.
.	.	4gg\	4bb\	4G\	-re	4b\	-re
=38	=38	=38	=38	=38	=38	=38	=38
2.G\	.	8gg\L	8bb\L	8G\	mi-	8b\	mi-
.	.	8gg\	8bb\J	8G\	-se-	8b\	-se-
.	.	8aa\	8ccc\L	8A\L	-re-	8cc\L	-re-
.	.	8ff#\J	16bb\L	8F#\J	.	8a\J	.
.	.	.	16aa\JJ	.	.	.	.
.	.	4gg\	4bb\	4G\	-re	4b\	-re
=39	=39	=39	=39	=39	=39	=39	=39
2.G\	.	4d/ 4b 4gg	4G/ 4d 4b 4gg	8.B\L	no-	8.dd\L	no-
.	.	.	.	16c\Jk	.	16ee\Jk	.
.	.	4d/ 4b 4gg	4G/ 4d 4b 4gg	8.B\L	.	8.dd\L	.
.	.	.	.	16c\Jk	.	16ee\Jk	.
.	.	4d/ 4b 4gg	4G/ 4d 4b 4gg	8.B\L	.	8.dd\L	.
.	.	.	.	16c\Jk	.	16ee\Jk	.
=40	=40	=40	=40	=40	=40	=40	=40
4G\	.	4d/ 4b 4gg	4G/ 4d 4b 4gg	2.G\	-bis	2dd\	-bis.
4G\	.	4r	4r	.	.	.	.
4G\	.	4r	4r	.	.	4r	.
!LO:TX:b:t=Dona nobis ut \nKyrie allo.	!	!LO:TX:a:t=40	!LO:TX:b:t=Dona nobis ut Kyrie\nallo.	!LO:TX:b:t=Dona nobis\nut Kyrie	!	!LO:TX:b:t=Dona nobis ut Ky\nallegro.	!
==	==	==	==	==	==	==	==
*-	*-	*-	*-	*-	*-	*-	*-
!!!system-decoration: [(g1)][(g2)]s5
!!!RDF**kern: > = above
!!!RDF**kern: < = below
!!!ENC: Berenika Jozajtis
!!!END: 2020-12-14
!!!ENC: Krzysztof Stępień
!!!END: 2022-03-24
